icons/4_Outdated/NextDNS v1.svg

<svg width="1024" height="1024" viewBox="0 0 1024 1024" fill="none" xmlns="http://www.w3.org/2000/svg">
<g clip-path="url(#clip0_3_599)">
<path d="M512 1024C794.77 1024 1024 794.77 1024 512C1024 229.23 794.77 0 512 0C229.23 0 0 229.23 0 512C0 794.77 229.23 1024 512 1024Z" fill="#728DBE"/>
<path d="M381.099 602.601C347.299 548.101 326.499 485.301 323.499 421.101C322.499 405.801 322.499 390.501 323.599 375.201C373.099 365.301 420.399 346.301 464.499 322.001C481.399 312.501 497.999 302.601 513.499 290.901C549.399 316.901 588.899 337.901 630.299 353.601C547.199 436.401 464.499 519.801 381.099 602.601ZM666.099 365.601C577.799 454.201 489.199 542.401 400.899 631.001C431.399 670.901 468.399 706.301 510.999 733.201C575.799 691.101 629.999 632.001 663.499 562.201C691.699 504.001 703.599 438.401 699.899 373.901C688.499 371.501 677.199 368.901 666.099 365.601ZM741.999 400.301C739.099 472.301 719.299 543.801 683.599 606.501C647.099 670.801 595.499 726.401 534.599 768.301C531.799 770.401 528.699 772.201 525.699 774.001C523.599 775.201 521.599 776.501 519.599 777.901L513.599 781.701C511.299 783.201 509.499 781.701 509.499 781.701C460.399 751.401 417.499 711.701 381.599 666.701C332.599 604.801 298.899 530.601 286.699 452.501C281.399 419.401 279.899 385.701 281.699 352.201C281.599 347.201 285.599 342.801 290.499 342.301C346.099 331.001 399.399 309.901 449.199 282.701C470.599 270.701 491.899 258.201 511.199 243.101C511.199 243.101 514.199 240.401 516.999 243.001C522.799 248.201 529.499 252.301 535.899 256.701C592.199 293.701 654.499 322.301 720.199 337.801C725.699 339.301 731.599 339.601 736.899 341.901C741.499 344.401 741.699 349.601 741.899 354.301L742.399 361.101V361.001C743.299 374.001 743.299 387.301 741.999 400.301ZM722.499 358.001C647.599 341.701 576.599 308.801 513.799 265.101C498.199 276.601 481.499 286.501 464.699 296.101C413.499 324.701 358.499 347.301 300.999 359.701C296.299 448.301 320.299 538.101 367.899 612.901C404.899 671.301 454.199 721.801 511.599 760.201C585.999 711.801 646.999 642.501 683.899 561.701C712.999 498.201 725.799 427.601 722.499 358.001Z" fill="white"/>
</g>
<defs>
<clipPath id="clip0_3_599">
<rect width="1024" height="1024" fill="white"/>
</clipPath>
</defs>
</svg>

<svg width="1024" height="1024" fill="none" xmlns="http://www.w3.org/2000/svg"><g clip-path="url(#a)"><path d="M512 1024c282.77 0 512-229.23 512-512S794.77 0 512 0 0 229.23 0 512s229.23 512 512 512Z" fill="#728DBE"/><path d="M381.099 602.601c-33.8-54.5-54.6-117.3-57.6-181.5-1-15.3-1-30.6.1-45.9 49.5-9.9 96.8-28.9 140.9-53.2 16.9-9.5 33.5-19.4 49-31.1 35.9 26 75.4 47 116.8 62.7-83.1 82.8-165.8 166.2-249.2 249Zm285-237c-88.3 88.6-176.9 176.8-265.2 265.4 30.5 39.9 67.5 75.3 110.1 102.2 64.8-42.1 119-101.2 152.5-171 28.2-58.2 40.1-123.8 36.4-188.3-11.4-2.4-22.7-5-33.8-8.3Zm75.9 34.7c-2.9 72-22.7 143.5-58.4 206.2-36.5 64.3-88.1 119.9-149 161.8-2.8 2.1-5.9 3.9-8.9 5.7-2.1 1.2-4.1 2.5-6.1 3.9l-6 3.8c-2.3 1.5-4.1 0-4.1 0-49.1-30.3-92-70-127.9-115-49-61.9-82.7-136.1-94.9-214.2-5.3-33.1-6.8-66.8-5-100.3-.1-5 3.9-9.4 8.8-9.9 55.6-11.3 108.9-32.4 158.7-59.6 21.4-12 42.7-24.5 62-39.6 0 0 3-2.7 5.8-.1 5.8 5.2 12.5 9.3 18.9 13.7 56.3 37 118.6 65.6 184.3 81.1 5.5 1.5 11.4 1.8 16.7 4.1 4.6 2.5 4.8 7.7 5 12.4l.5 6.8v-.1c.9 13 .9 26.3-.4 39.3Zm-19.5-42.3c-74.9-16.3-145.9-49.2-208.7-92.9-15.6 11.5-32.3 21.4-49.1 31-51.2 28.6-106.2 51.2-163.7 63.6-4.7 88.6 19.3 178.4 66.9 253.2 37 58.4 86.3 108.9 143.7 147.3 74.4-48.4 135.4-117.7 172.3-198.5 29.1-63.5 41.9-134.1 38.6-203.7Z" fill="#fff"/></g><defs><clipPath id="a"><path fill="#fff" d="M0 0h1024v1024H0z"/></clipPath></defs></svg>
